icons/view-grid.svg

<svg xmlns="http://www.w3.org/2000/svg" width="24" height="24" baseProfile="full" viewBox="0 0 24 24"><path d="M3 5h8v7H3V5zm9 0h8v7h-8V5zm-9 8h8v7H3v-7zm9 0h8v7h-8v-7z"/></svg>

﻿<?xml version="1.0" encoding="utf-8"?>
<!DOCTYPE svg PUBLIC "-//W3C//DTD SVG 1.1//EN" "http://www.w3.org/Graphics/SVG/1.1/DTD/svg11.dtd">
<svg xmlns="http://www.w3.org/2000/svg" xmlns:xlink="http://www.w3.org/1999/xlink" version="1.1" baseProfile="full" width="24" height="24" viewBox="0 0 24.00 24.00" enable-background="new 0 0 24.00 24.00" xml:space="preserve">
	<path fill="#000000" fill-opacity="1" stroke-linejoin="round" d="M 3,5L 11,5L 11,12L 3,12L 3,5 Z M 12,5L 20,5L 20,12L 12,12L 12,5 Z M 3,13L 11,13L 11,20L 3,20L 3,13 Z M 12,13L 20,13L 20,20L 12,20L 12,13 Z "/>
</svg>
